X:1840
T:the Freize breeches
T:the Friars breeches
M:6/8
O:Ireland
R:Jig
Z:Richard Robinson 
%%TUNEURL: http://www.leeds.ac.uk/music/Info/RRTuneBk/gettune/0000084b.html
%%ID:0000084b
K:D
FED EFG|A2d cAG|A2A BAG|FAF GED|\
FED EFG|Add cAG|FF/F/F GEA|DDD D3::
d2e fed|efd cAG|AAA BAG|FAF GED|\
d2e fed|efd cAG|FF/F/F GEA|DDD D3::
DD/D/D =c3|AdB =cAG|AB=c ded|ded =cAF|\
DD/D/D =c3|AdB =cAG|FF/F/F GEA|DDD D3::
d2e fdd|Add fdd|c2d eAA|fed ecA|\
d2e fdd|Add fdd|faf gfe|dfe d3::
fed ecA|ded cAG|AAA BAG|FAF GED|\
fed ecA|ded cAG|FFF GEA|DD/D/D D3::
